X: 2017
T: Farewell To Craigie Dhu
B: steve tunes
M:4/4
Q: 1/4=100
K:Dmixolydian
V:1 
AB|:"Am"c4 efga|"D"f2 (d2 d2) AB|"Am"c3A "G"B3G|"G"GFGB "D"A2 AB|
"Am"c4 efga|"D"f2 (d2 d2) AB|"Am"c3A "G"B3G|1 "D"GF (D2 D2) AB:|2 "D"GF D4 fg||
|:"D"a3f "C"g3e|"D"fgfd "C"c3A|"G"B2 B2) BABd|"G"B2 (A2 "D"A2) fg|
"D"a3f "C"g3e|"D"fgfd "C"c3A|"Am"cdcA "G"GFGA|1 "D"F2 (D2 D2) fg:|2 "D"F2 (D2 D4)||
% abcbook-tune_id 62a1c73a25fdd0bd4c740475


% abcbook-boost 0
% abcbook-tablature 
% abcbook-transpose 
% abcbook-lastupdated 1654769849089
% abcbook-soundfonts 
% abcbook-repeats 3


